X: 1
T: My Tocher's the Jewel
C: Robert Burns (1820-1869)
R: jig
Z: 2010 John Chambers <jc:trillian.mit.edu>
M: 6/8
L: 1/8
K: Em
D \
| "Em"B,EE E2D | EGA Bed | "G"BBA GBA | "C"GED "D7"D2D |
| "Em"B,EE E2D | EGA Bed | Bge "Bm"dBA | "Em"G>EE E2B |
| "G"d>ed dBG | "Am"ABd "D7"e2e | "G"d>BG "Em"GBA | "C"GED "D7"D2D |
| "C"EGD EGD | EGA "G"Bed | "Em"B<ge "Bm"dBA | "Em"GEE E2 :|
